svg/furkot/freepik/diesel.svg

<svg viewBox="0 0 512 512" xmlns="http://www.w3.org/2000/svg"><path d="m246.115 0c-.017-.028-124.58 123.807-164.112 230.99-64.046 368.161 406.76 378.675 349.341 7.254-46.234-140.117-184.837-238.33-185.229-238.244zm116.902 306.675c0 38.788-10.581 68.443-31.745 88.965s-51.52 30.783-91.063 30.783h-65.42v-235.002h72.334c36.544 0 64.992 10.048 85.349 30.144 20.363 20.091 30.545 48.46 30.545 85.11zm-42.399.964c-1.321-63.55-46.561-79.099-76.353-79.099h-29.995l1.32 153.607h23.407c36.599 0 82.913-12.26 81.621-74.508z"/></svg>

<svg viewBox="0 0 512 512" xmlns="http://www.w3.org/2000/svg"><path d="M 246.115 0 C 246.098 -0.028 121.535 123.807 82.003 230.99 C 17.957 599.151 488.763 609.665 431.344 238.244 C 385.11 98.127 246.507 -0.086 246.115 0 Z M 363.017 306.675 C 363.017 345.463 352.436 375.118 331.272 395.64 C 310.108 416.162 279.752 426.423 240.209 426.423 L 174.789 426.423 L 174.789 191.421 L 247.123 191.421 C 283.667 191.421 312.115 201.469 332.472 221.565 C 352.835 241.656 363.017 270.025 363.017 306.675 Z M 320.618 307.639 C 319.297 244.089 274.057 228.54 244.265 228.54 L 214.27 228.54 L 215.59 382.147 L 238.997 382.147 C 275.596 382.147 321.91 369.887 320.618 307.639 Z"/></svg>
